X: 26139
T: McGurk's Wall
R: jig
M: 6/8
K: Amajor
|:~F3 cF/z/d|z ed cBA|~B3 BAG|FGA GFE|
~F3 cF/z/d|z ed cBA|~B3 BAG|1 F4 z E:|2 F4 F2||
|:cc/c/c eag|fed cBA|~B3 BAG|FGA GFE|
[1 cc/c/c eag|fed cBA|~B3 BAG|F3 F3:|
[2 ~F3 cF/z/d|z ed cBA|~B3 BAG|F4 z E||

